X:1
T:James Gibb editions
T:Can I forget - Morley
%%score [ 1 2 ]
L:1/8
Q:1/4=108
M:4/4
K:C
V:1 treble-8 nm="Tenor"
V:2 bass nm="Lute"
V:1
"^Can I forget what Reason's force""^Thomas Morley\n(1557-1602)" z8 | c4 B2 A2 | G4 c4 | e4 d4 | %4
w: |Can I for-|get what|Rea- son's|
w: |For now I|prove no|life to|
w: |A- no- ther|heart I|spied, com-|
w: |So Cu- pid|plays oft|now- a-|
 c6 c2 | d3 e f2 e2 | d8 | z8 |[M:4/4][K:treble-8] z8 | g4 f2 e2 ||[M:3/2][Q:1/4=216] d8 B4 | %11
w: force Im-|print- ed in my|heart?|||Can I un-|think these|
w: love Where|Fan- cy breeds con-|tent.|||True love's re-|ward with|
w: bin'd Wi-|thin my breast so|fast,|||As to a|stran- ger|
w: days And|makes the fool seem|fair;|||He dims the|sight bred-|
 c4 A8 | G8 f4 | e8 d4 | c8 B4 | c12 | z12 |[M:3/2][K:treble-8][Q:1/4=216][Q:1/4=216] c4 d4 c4 | %18
w: rest- less|thoughts When|first I|felt Love's|dart?||Shall tongue re-|
w: wise re-|gard Is|ne- ver|to re-|pent;||It yields de-|
w: I seem'd|strange, But|Love forc'd|love at|last,||Yet was I|
w: ing de-|light Where|we seem|to des-|pair.||So in our|
 f8 e4 | d8 c4 | B8 e4 | d8 B4 | c4 A8 ||[M:4/4][Q:1/4=108] G8 | z8 | %25
w: call what|Thoughts and|Love By|Rea- son|once did|speak?||
w: light that|feeds the|sight Whilst|dis- tance|do them|part.||
w: not as|then I|seem'd But|ra- ther|wish to|see||
w: heart he|makes them|sport And|laughs at|them that|love.||
[M:4/4][K:treble-8][Q:1/4=108][Q:1/4=108] z8 | z4 z2 g2 | e2 c2 f4 | e2 d4 c2 | B2 G2 d2 f2 | %30
w: |No,|no, all things|save death wants|force That faith- ful|
w: |Such|food fed me|when I did|see In mine a-|
w: |If|in so full|a har- bour|Love Might con- stant|
w: |Who|for their pain|gets this a-|gain Their love no|
 e4 d4 | c8 | z8 | z8 | z2 g2 e2 c2 | f4 e2 d2- | d2 c2 B2 G2 | A2 c2 c2 B2 | c8 |] %39
w: band to|break,|||No, no, all|things save death|* wants force That|faith- ful band to|break.|
w: no- ther|heart;|||Such food fed|me when I|* did see In|mine an- o- ther|heart.|
w: lodg- ed|be,|||If in so|full a har\-|* bour Love Might|con- stant lodg- ed|be.|
w: li- ing|move,|||Who for their|pain gets this|* a- gain Their|love no li- ing|move.|
V:2
 C,8 | C,8 | C,6 C,2 | C,4 G,4 | C,6 C,2 | _B,,6 C,2 | G,,8 | G,8 |[M:4/4] G,8 | E,4 F,2 C,2 || %10
[M:3/2] G,8 G,4 | C,4 D,8 | G,,8 D,4 | E,4 C,4 D,4 | E,4 F,4 G,4 | C,12 | F,12 |[M:3/2] F,12 | %18
 F,12 | F,12 | G,8 C,4 | G,8 G,4 | C,4 D,8 ||[M:4/4] G,,8 | z4 z2 D,2 |[M:4/4] G,,2 B,,2 A,,4 | %26
 G,,8 | C,2 E,2 D,4 | C,2 B,,4 C,2 | G,,2 G,2 F,2 D,2 | E,3 F, G,4 | C,6 C2 | A,2 F,2 C3 B, | %33
 A,G, A,2 G,2 C2 | B,2 G,2 C,2 E,2 | D,4 C,2 B,,2 | B,,2 C,2 G,2 E,2 | F,2 C,2 G,4 | C,8 |] %39

